X: 20742
T: The IVY GREEN
C: Henry Russell.
Q: "Moderate."
%R: jig
B: W. Hamilton "Universal Tune-Book" Vol. 2 Glasgow 1846 p.74 #2
S: http://s3-eu-west-1.amazonaws.com/itma.dl.printmaterial/book_pdfs/hamiltonvol2web.pdf
Z: 2016 John Chambers <jc:trillian.mit.edu>
M: 6/8
L: 1/8
K: G
% - - - - - - - - - - - - - - - - - - - - - - - - -
d/d/ |\
d2d d^cd | ed^c d2B | GGG GFG | A3 D2d |\
d2d d^cd | ed^c d2 d/e/ | fgf eB^c | d3- d2d |
eed eed | e2d d2d | ^ccc cde | d3- d2 d/d/ |\
d2B G2G | g2f He2 (g/f/) | g2B e2d | G3- G2z |
g2f Ace | e2d G2d | e2d edd | cBA G2g |\
g2f Ace | e2d G2d | efg gGA | B2A G2z |
D2D z2z | G2G z2z | c2c c2B | A2D G2z |\
D2D z2z | G2G z2B | cde dGA | B2A G2 |]
% - - - - - - - - - - - - - - - - - - - - - - - - -

%%sep 1 1 500
%%sep 1 1 500

